icons/svg/16x16/download/outline.svg

<svg width="16" height="16" fill="none" xmlns="http://www.w3.org/2000/svg">
  <path fill-rule="evenodd" clip-rule="evenodd" d="M4 3h1c1.103 0 2 .897 2 2v2H4l4 5 4-5H9V5c0-2.206-1.794-4-4-4H4a1 1 0 100 2zm11 7v2c0 1.654-1.346 3-3 3H4c-1.654 0-3-1.346-3-3v-2a1 1 0 112 0v2a1 1 0 001 1h8a1 1 0 001-1v-2a1 1 0 112 0z" fill="#000"/>
</svg>

<svg xmlns="http://www.w3.org/2000/svg" width="16" height="16" viewBox="0 0 16 16">
  <path fill-rule="evenodd" d="M4,3 L5,3 C6.103,3 7,3.897 7,5 L7,7 L4,7 L8,12 L12,7 L9,7 L9,5 C9,2.794 7.206,1 5,1 L4,1 C3.447,1 3,1.447 3,2 C3,2.553 3.447,3 4,3 M15,10 L15,12 C15,13.654 13.654,15 12,15 L4,15 C2.346,15 1,13.654 1,12 L1,10 C1,9.447 1.447,9 2,9 C2.553,9 3,9.447 3,10 L3,12 C3,12.552 3.448,13 4,13 L12,13 C12.552,13 13,12.552 13,12 L13,10 C13,9.447 13.447,9 14,9 C14.553,9 15,9.447 15,10"/>
</svg>
